X:1
T:Wie lieblich sind deine Wohnungen
T:Josef Rheinberger
T:Motette nach dem 83. Psalm
T:Wie lieblich sind deine Wohnungen
T:Op. 35, Fassung für gemischten Chor
T:CPDL - Creative Commons Attribution Non Commercial 3.0
T:CPDL - Creative Commons Attribution Non Commercial 3.0
T:CPDL - Creative Commons Attribution Non Commercial 3.0
T:CPDL - Creative Commons Attribution Non Commercial 3.0
T:CPDL - Creative Commons Attribution Non Commercial 3.0
T:CPDL - Creative Commons Attribution Non Commercial 3.0
T:CPDL - Creative Commons Attribution Non Commercial 3.0
T:CPDL - Creative Commons Attribution Non Commercial 3.0
C:Josef Rheinberger
Z:CPDL - Creative Commons Attribution Non Commercial 3.0
%%score [ 1 2 3 4 ]
L:1/8
Q:1/4=80
M:3/4
K:A
V:1 treble nm="S"
V:2 treble nm="A"
V:3 treble-8 nm="T"
V:4 bass nm="B"
V:1
"^Andantino"!p! A2 B3 G |!<(! A2 c2 f2!<)! | e>B B2 c2 | d4 d2 |!<(! G3 G AB!<)! | B2 AG Fd | %6
w: Wie lieb- lich|sind dei- ne|Woh- nun- gen, o|Herr! Es|sehnt sich mei- ne|See- le * nach dem|
 c2!>(! A2 B2 | A4!>)! z2 |!mf! A2 B3 G |!<(! A2 c2 f2!<)! |!f! ^e>^d c2 A2 | G4!p! G2 | %12
w: Vor- hof des|Herrn,|wie lieb- lich|sind dei- ne|Woh- nun- gen, o|Herr! es|
!<(! G3 G G>=d!<)! |!>(! d2 c2 F!>)!G | A2 G2 F2 | E4 z2 | z6 | z2 z2!f! F2 |!<(! F>E E>F G>A!<)! | %19
w: sehnt sich mei- ne|See- le nach dem|Vor- hof des|Herrn.||Mein|Herz froh- lockt in dem le-|
 !^!B2 !^!B2 !^!B2 | B2 A2 A2 | (^d3 e) fd | B4!f! B2 | (g3 f) e^d | c3 B AG | F2 B3 B | %26
w: ben- di- gen|Got- te, mein|Herz _ froh- *|lockt, mein|Herz _ froh- *|lockt in dem le-|ben- di- gen|
 BA G2!f! B2 | (g3 f) e^d | c3 c ^de |!<(! G4 B2-!<)! |!>(! B2 A2 F2!>)! | E2!p!!<(! B2 B2!<)! | %32
w: Got- * te, mein|Herz _ froh- *|lockt in dem le-|ben- *|* di- gen|Gott; denn der|
 c4!>(! B2!>)! | z2 B2 G>E | e6 | z2!<(! c2 c2 |!>(! =d4!<)! c2!>)! | z2!<(! c2 A>F!<)! | f6- | %39
w: Sper- ling|fin- det ein|Haus,|und die|Tau- be|Ob- dach im|Sturm:|
 f2 z2!f! f2- | f2 d3 d | d3 d =g2 | f2 d2 z2 |!pp! F2!<(! F2 F2 | ^A2 F2 z2 | B4!<)! F2 |!f! c6 | %47
w: * ich|_ fin- de|dei- ne Al-|tä- re,|o du mein|Kö- nig,|Herr und|Gott!|
!p! c4 c2 | c2 B2 ^A2 | B>F F2 A2 | A2 G2 z2 |!<(! d2 d2 d2 | d>^d!<)! d2 z2 |!<(! ^d2 d2 d2 | %54
w: Se- lig|sind die in|dei- nem Hau- se|woh- nen,|in al- le|E- wig- keit,|in al- le|
 ^d>e!<)! e2 z2 | f3 B!>(! B2 | B6!>)! |!p! A2 B3!<(! G | (A2 c2) f2!<)! | e2 B2 c2 | %60
w: E- wig- keit|lo- ben sie|dich!|Barm- her- zig-|keit _ und|Wahr- heit liebt|
!>(! d4 d2!>)! |!<(! G3 G AB!<)! |!>(! B2 A2!>)!!<(! A2 |!>(! c2!<)!!>)! B2!<(! B2!<)! | %64
w: Gott, und|de- nen die da|wan- deln in|Un- schuld, in|
 d2 c2!f! c2 | f4 e2 | (e2 ^d2) d2 |!ff! a6 | e6 | (e2 dc) BA |"^rit." A4 G2 | !fermata!A6 |] %72
w: Un- schuld gibt|Gna- de|er, _ gibt|Gna-|de|er _ _ und _|Herr- lich-|keit.|
V:2
!p! E2 E3 E |!<(! E2 A2 A2!<)! | G>G G2 =G2 | F4 F2 |!<(! E3 E EE!<)! | E2 E2 FF | E3!>(! F G2 | %7
w: ||||||Vor- hof *|
 A4!>)! z2 |!mf! F2 F3 F |!<(! F2 F2 A2!<)! |!f! G>F ^E2 ^D2 | ^E4!p! E2 |!<(! ^E3 E EE!<)! | %13
w: ||||||
!>(! ^E2 F2 F!>)!=E | ^D2 D2 D2 | E4 z2 | z6 | z6 | z6 | z2 z2!f! E2 |!<(! E>^D D>E F>G!<)! | %21
w: ||||||Mein|Herz froh- lockt in dem le-|
 !^!A2 !^!A2 !^!A2 | A2 G2!f! EF | (G3 A) GF | E3 G FE | ^D2 D3 D | E2 E2!f! B2 | B4 E2 | cBAG FE | %29
w: ben- di- gen|Got- te, mein *|||||Herz froh-|lockt _ _ _ in _|
!<(! E4 G2!<)! |!>(! G2 F2 ^D2!>)! | E4 z2 | z2!p!!<(! E2 E2!<)! | F4!>(! E2!>)! | z2 E2 =D>C | %35
w: dem le-|ben- di- gen|Gott;|denn der|Sper- ling|fin- det ein|
 C4 z2 | z2!<(! F2 F2!<)! | G4!>(! F2!>)! | z2!<(! F2 G>A | A2!<)! z2!f! A2- | A2 F3 F | =G3 G B2 | %42
w: Haus,|und die|Tau- be|Ob- dach im|Sturm: *|||
 A2 F2 z2 |!pp! F2!<(! F2 F2 | E2 E2 z2 | D4!<)! DC |!f! C6 |!p! ^A4 G2 | F2 F2 E2 | F>D D2 D2 | %50
w: ||||||||
 D2 D2 z2 |!<(! G2 G2 G2 | G>F!<)! F2 z2 |!<(! F2 G2 A2 | A>A!<)! A2 z2 | A3 A!>(! A2 | %56
w: ||||||
 (G4!>)! F2) |!p! E2 E3!<(! E | (E2 A2) A2!<)! | G2 G2!>(! =G2 | F4 F2!>)! |!<(! E3 E EE!<)! | %62
w: ||||||
!>(! E2 E2!>)! z!<(! E | F2 G2!<)! z G | G2 ^A2 z2 | z2!f! ^A2 c2 | =c2 c2 z2 | z2!ff! A2 B2 | %68
w: wan- deln in|Un- schuld, in|Un- schuld|gibt er|Gna- de|gibt er|
 (c2 G2) A2 | A3 G F2 | E4 E2 | !fermata!E6 |] %72
w: Gna- * de,|Gna- de und|Herr- lich-|keit.|
V:3
!p! c2 d3 B |!<(! c2 c2 d2!<)! | B>e e2 e2 | d4 dc |!<(! B3 B AG!<)! | G2 A2 AA | A2!>(! c2 d2 | %7
w: Wie lieb- lich|sind dei- ne|Woh- nun- gen, o|Herr! Es _|sehnt sich mei- ne|See- le nach dem|Vor- hof des|
 c4!>)! z2 |!mf! c2 d3 B |!<(! c2 c2 c2!<)! |!f! c>c c2 c2 | c4!p! c2 |!<(! d3 d dG!<)! | %13
w: Herrn,|wie lieb- lich|sind dei- ne|Woh- nun- gen, o|Herr! es|sehnt sich mei- ne|
!>(! G2 A2 A!>)!G | F2 B2 A2 |"^Herrn." G4 z2 | z6 | z6 | z6 | z6 | z6 | z2 z2!f! F2 | %22
w: See- le nach dem|Vor- hof des|||||||Mein|
!<(! F>E E>F G>A!<)! | !^!B2 !^!B2 !^!B2 | B2 A2 c2- | c2 BFGA | GF E2!f! B2 | e4 G2 | Acfe ^dc | %29
w: Herz froh- lockt in dem le-|ben- di- gen|Got- te, froh-||lo- * cket, mein|Herz froh-|lockt _ _ _ in _|
!<(! B4 e2!<)! |!>(! ^d3 d A2!>)! | G4 z2 | z2!p!!<(! G2 G2!<)! | A4!>(! G2!>)! | z2 G2 B>E | %35
w: dem le-|ben- di- gen|Gott;|denn der|Sper- ling|fin- det ein|
 E4 z2 | z2!<(! A2 A2!<)! | B4!>(! A2!>)! | z2!<(! A2 B>=c | =c2!<)! z2!f! c2- | c2 =c2 c2 | %41
w: Haus,|und die|Tau- be|Ob- dach im|Sturm; ich|_ fin- de|
 B2 =G2 B2 | d2 d2 z2 |!pp! F2!<(! F2 F2 | F2 ^A2 z2 | F4!<)! B2 |!f! ^A6 |!p! f4 e2 | d2 d2 c2 | %49
w: dei- ne Al-|tä- re,|o du mein|Kö- nig,|Herr und|Gott!|Se- lig|sind die in|
 B>B B2 B2 | B2 B2 z2 |!<(! B2 B2 B2 | B>A!<)! A2 z2 |!<(! B2 B2 B2 | c>c!<)! c2 z2 | %55
w: dei- nem Hau- se|woh- nen,|in al- le|E- wig- keit,|in al- le|E- wig- keit|
 B4!<(! Bc!<)! |!>(! =d6!>)! |!p! c2 d3!<(! B | c4 d2!<)! | B2 e2!>(! e2 | d4 d!>)!c | %61
w: lo- ben sie|dich!|Barm- her- zig-|keit und|Wahr- heit liebt|Gott, und _|
!<(! B3 B AG!<)! |!>(! G2 A2!>)! z!<(! A | ^d2 e2!<)! z e | ^e2 f2 z2 | z2!f! c2 =g2 | f2 f2 z2 | %67
w: de- nen die da|wan- deln in|Un- schuld, in|Un- schuld|gibt er|Gna- de|
 z2!ff! ^d2 =d2 | (c2 B2) A2 | f3 e dc | (B2 c2) d2 | !fermata!c6 |] %72
w: gibt er|Gna- * de,|Gna- de und _|Herr- * lich-|keit.|
V:4
!p! A,2 A,2 A,2 |!<(! A,2 F,2 D,2!<)! | E,>E, E,2 ^A,,2 | B,,4 B,,C, |!<(! D,3 D, D,D,!<)! | %5
w: Wie lieb- lich|sind dei- ne|Woh- nun- gen, o|Herr! Es _|sehnt sich mei- ne|
 C,2 C,2 D,B,, | E,2 E,2 E,2 | A,,2 A,2 G,2 |!mf! F,4 F,2 |!<(! F,2 A,2 F,2!<)! |!f! C>C, C,2 F,2 | %11
w: See- le nach dem|Vor- hof des|Herrn, o wie|lieb- lich|sind dei- ne|Woh- nun- gen, o|
 C,4!p! B,,2 |!<(! ^A,,3 A,, A,,A,,!<)! |!>(! =A,,2 A,,2 A,,!>)!A,, | B,,2 B,,2 B,,2 | E,4!f! E,2 | %16
w: Herr! es|sehnt sich mei- ne|See- le nach dem|Vor- hof des|Herrn. Mein|
!<(! E,>^D, D,>E, F,>G,!<)! | !^!A,2 !^!A,2 !^!A,2 | A,2 G,2 z B, | (G,3 F,) G,E, | F,4 ^D,E, | %21
w: Herz froh- lockt in dem le-|ben- di- gen|Got- te, mein|Herz _ froh- *|lockt, mein _|
 (F,3 E,) ^D,2 | E,4!f! E,2 | E,4 G,,2 | A,,4 A,,2 | B,,4 B,,2 | E,4!f! B,A, | G,F,E,^D,C,B,, | %28
w: Herz _ froh-|lockt, mein|Herz froh-|lockt, mein|Herz froh-|lockt, froh- *|lo- * * * * *|
 A,,3 A,, A,2 | (B,2 G,2) E,2 | B,,3 B,, B,,2 | E,4 z2 | z2!p!!<(! E,2 E,2!<)! | ^D,4!>(! E,2!>)! | %34
w: * cket in|dem _ le-|ben- di- gen||||
 z2 E,2 G,,>A,, | A,,4 z2 | z2!<(! F,2 F,2!<)! | ^E,4!>(! F,2!>)! | z2!<(! D,2 D,>D, | %39
w: |||||
 D,2!<)! z2 z2 |!f! D6 | D2 B,2 =G,2 | D2 D,2 z2 |!pp! F,2!<(! E,2 D,2 | C,2 C,2 z2 | %45
w: |ich|dei- ne Al-|tä- re,|||
 B,,4!<)! B,,2 |!f! F,,6 | z6 |!p! (B,,4 C,2 | D,4 F,2 | E,2) E,2 z2 |!<(! E,2 E,2 E,2 | %52
w: |||Se- *||* lig,|in al- le|
 E,>B,,!<)! B,,2 z2 |!<(! A,2 G,2 F,2 | E,>E,!<)! E,2 z2 | ^D,3 D, D,2 | E,6 |!p! A,2 A,2 A,2 | %58
w: E- wig- keit,|||lo- ben sie|dich!||
!<(! (A,2 F,2) D,2!<)! | E,2 E,2!>(! ^A,,2 | B,,4 B,,!>)!C, |!<(! D,3 D, D,D,!<)! | %62
w: ||||
!>(! C,2 C,2!>)! z!<(! C, | A,2 G,2!<)! z G, | B,2 ^A,2 z2 | z2!f! F,2 ^A,,2 | =A,,2 =A,2 z2 | %67
w: |||||
 z2!ff! F,2 =F,2 | (E,2 D,2) C,2 | D,6 | E,4 E,2 | !fermata!A,,6 |] %72
w: gibt er|Gna- * de|und|Herr- lich-|keit.|

